X: 21263
T: THE MAIDS OF ISLA -- Strathspey
R: strathspey
B: K\"ohler's Violin Repository, v.2, 1885 p.126 #3
F: http://www.archive.org/details/klersviolinrepos02rugg
Z: 2012 John Chambers <jc:trillian.mit.edu>
M: C|
L: 1/8
K: A
uc |\
A<A (e>c) (e>f) e>c | A<A (e>c) f>e c2 |\
A<A (e>c) (e>f) e>c | (.f>.g) (a>f) e<c [BG] ||
e |\
(.a>.b)(af) (.e>.f)(ec) | (.a>.b) (a>f) (e>f) [c2A2] |\
(a>b)(a>f) (.e>.f)(ec) | (.f>.g)(a>f) e<c [BG]>e |
(.a>.b)(af) (.e>.f)(ec) | (.a>.b)(af) (e<f) [c2A2] |\
(a>b) (f>a) (e>f) (c>e) | (.f>.g)(af) "_Segue Reel."e<c [BG] "^D.C."|]

%%sep 2 1 500

